build/img/favicon.svg

<svg width="260" height="260" viewBox="0 0 260 260" fill="none" xmlns="http://www.w3.org/2000/svg">
<g clip-path="url(#clip0)">
<mask id="mask0" style="mask-type:alpha" maskUnits="userSpaceOnUse" x="-8" y="0" width="280" height="260">
<rect x="-8" width="280" height="260" fill="#C4C4C4"/>
</mask>
<g mask="url(#mask0)">
<path fill-rule="evenodd" clip-rule="evenodd" d="M520.305 74.9637C520.305 73.581 520.866 72.2549 521.864 71.2771C522.862 70.2994 524.215 69.7501 525.627 69.7501H728.839C749.85 69.8541 769.965 78.1015 784.79 92.6904C799.614 107.279 807.942 127.024 807.955 147.61V240.374C807.955 241.761 807.396 243.092 806.4 244.078C805.403 245.063 804.05 245.623 802.634 245.636H767.494C766.078 245.623 764.724 245.063 763.728 244.078C762.731 243.092 762.172 241.761 762.172 240.374V145.741C762.172 140.156 761.049 134.626 758.866 129.467C756.683 124.308 753.484 119.621 749.451 115.675C745.418 111.728 740.63 108.599 735.362 106.466C730.094 104.333 724.449 103.239 718.749 103.245H686.972V240.374C686.978 241.062 686.846 241.746 686.581 242.384C686.317 243.022 685.926 243.603 685.431 244.092C684.936 244.581 684.347 244.97 683.698 245.235C683.05 245.5 682.353 245.636 681.65 245.636H646.51C645.085 245.636 643.719 245.082 642.712 244.095C641.704 243.108 641.138 241.769 641.138 240.374V103.344H565.837V240.374C565.844 241.062 565.711 241.746 565.447 242.384C565.182 243.022 564.792 243.603 564.297 244.092C563.802 244.581 563.213 244.97 562.564 245.235C561.915 245.5 561.219 245.636 560.516 245.636H525.376C524.673 245.636 523.977 245.5 523.328 245.235C522.679 244.97 522.09 244.581 521.595 244.092C521.1 243.603 520.709 243.022 520.445 242.384C520.181 241.746 520.048 241.062 520.054 240.374L520.305 74.9637ZM986.419 138.905H879.24C849.973 138.905 833.507 161.726 833.507 186.368V198.91C833.547 211.365 838.618 223.297 847.611 232.099C856.604 240.901 868.788 245.856 881.499 245.882H1027.08C1028.5 245.869 1029.85 245.309 1030.85 244.324C1031.84 243.338 1032.4 242.007 1032.4 240.62V147.61C1032.4 99.7531 1001.33 69.7501 952.834 69.7501H845.957C844.546 69.7501 843.192 70.2994 842.195 71.2771C841.197 72.2549 840.636 73.581 840.636 74.9637V98.13C840.636 99.5127 841.197 100.839 842.195 101.817C843.192 102.794 844.546 103.344 845.957 103.344H943.698C971.61 103.344 984.862 116.771 986.67 138.659L986.419 138.905ZM987.121 213.863H897.061C894.297 213.812 891.57 213.226 889.038 212.139C886.505 211.052 884.217 209.485 882.304 207.529C880.391 205.573 878.892 203.266 877.893 200.74C876.893 198.214 876.413 195.52 876.479 192.812V187.45C876.282 184.711 876.672 181.962 877.624 179.38C878.577 176.797 880.07 174.439 882.009 172.456C883.948 170.473 886.289 168.91 888.881 167.867C891.474 166.824 894.26 166.324 897.061 166.399H986.871L987.121 213.863ZM373.017 69.7501H403.137C454.743 69.7501 497.263 98.8677 497.263 157.497C497.263 212.486 460.265 245.636 403.137 245.636H373.017C316.29 245.636 278.69 212.486 278.69 157.497C278.69 98.8677 321.661 69.7501 372.866 69.7501H373.017ZM382.906 103.344H393.649C430.245 103.344 452.183 121.247 452.183 157.447C452.183 191.434 433.458 211.994 393.649 211.994H383.057C342.896 211.994 324.523 191.434 324.523 157.447C324.523 121.198 346.009 103.344 383.057 103.344H382.906ZM2.58594 18.1548C2.59903 16.776 3.16386 15.4574 4.15897 14.4824C5.15408 13.5074 6.49997 12.954 7.90721 12.9412H152.535C209.664 12.9412 256.3 44.7148 256.3 116.771V141.806C256.3 209.387 209.664 245.636 152.535 245.636H7.90721C6.49132 245.623 5.13793 245.063 4.14142 244.078C3.1449 243.092 2.58588 241.761 2.58594 240.374L2.58594 18.1548ZM50.126 48.3053H148.168C187.927 48.3053 207.154 70.6846 207.154 120.804V138.216C207.154 184.745 187.927 210.272 148.168 210.272H50.126V48.3053ZM1314.18 12.9412C1321.06 13.0051 1327.64 15.7083 1332.51 20.4712C1337.38 25.2341 1340.15 31.6773 1340.23 38.4191C1340.24 43.47 1338.72 48.4102 1335.87 52.6146C1333.01 56.819 1328.94 60.0985 1324.18 62.0381C1319.42 63.9778 1314.18 64.4903 1309.13 63.5109C1304.07 62.5315 1299.42 60.1042 1295.77 56.5361C1292.12 52.968 1289.64 48.4196 1288.63 43.4665C1287.62 38.5134 1288.13 33.3782 1290.1 28.7109C1292.07 24.0435 1295.41 20.0538 1299.7 17.2467C1303.98 14.4396 1309.02 12.9412 1314.18 12.9412V12.9412ZM1337.02 87.0633V240.374C1337.03 241.062 1336.89 241.746 1336.63 242.384C1336.37 243.022 1335.97 243.603 1335.48 244.092C1334.98 244.581 1334.4 244.97 1333.75 245.235C1333.1 245.5 1332.4 245.636 1331.7 245.636H1296.56C1295.13 245.636 1293.77 245.082 1292.76 244.095C1291.75 243.108 1291.19 241.769 1291.19 240.374V87.0633C1291.19 86.3638 1291.33 85.6713 1291.61 85.0263C1291.88 84.3813 1292.29 83.7967 1292.8 83.3067C1293.31 82.8167 1293.91 82.4311 1294.57 82.1725C1295.24 81.9139 1295.95 81.7874 1296.66 81.8005H1331.8C1333.21 81.8005 1334.56 82.3498 1335.56 83.3275C1336.56 84.3053 1337.12 85.6314 1337.12 87.0141L1337.02 87.0633ZM1061.82 74.9637C1061.82 73.581 1062.38 72.2549 1063.38 71.2771C1064.38 70.2994 1065.73 69.7501 1067.14 69.7501H1182.9C1203.99 69.8017 1224.2 78.0135 1239.13 92.597C1254.06 107.18 1262.5 126.954 1262.62 147.61V240.374C1262.62 241.761 1262.06 243.092 1261.07 244.078C1260.07 245.063 1258.72 245.623 1257.3 245.636H1222.16C1220.75 245.623 1219.39 245.063 1218.4 244.078C1217.4 243.092 1216.84 241.761 1216.84 240.374V145.741C1216.8 134.483 1212.22 123.696 1204.09 115.735C1195.97 107.774 1184.96 103.284 1173.47 103.245H1107.55V240.374C1107.56 241.062 1107.43 241.746 1107.16 242.384C1106.9 243.022 1106.51 243.603 1106.01 244.092C1105.52 244.581 1104.93 244.97 1104.28 245.235C1103.63 245.5 1102.93 245.636 1102.23 245.636H1067.09C1066.39 245.63 1065.7 245.489 1065.06 245.221C1064.42 244.953 1063.83 244.563 1063.34 244.075C1062.85 243.586 1062.47 243.008 1062.21 242.373C1061.94 241.738 1061.81 241.058 1061.82 240.374V74.9637Z" fill="#212223"/>
</g>
</g>
<defs>
<clipPath id="clip0">
<rect width="260" height="260" fill="white"/>
</clipPath>
</defs>
</svg>

<svg width="260" height="260" fill="none" xmlns="http://www.w3.org/2000/svg"><g clip-path="url(#clip0)"><mask id="a" style="mask-type:alpha" maskUnits="userSpaceOnUse" x="-8" y="0" width="280" height="260"><path fill="#C4C4C4" d="M-8 0h280v260H-8z"/></mask><g mask="url(#a)"><path fill-rule="evenodd" clip-rule="evenodd" d="M520.305 74.964a5.16 5.16 0 011.559-3.687 5.377 5.377 0 013.763-1.527h203.212c21.011.104 41.126 8.352 55.951 22.94 14.824 14.589 23.152 34.334 23.165 54.92v92.764a5.212 5.212 0 01-1.555 3.704 5.43 5.43 0 01-3.766 1.558h-35.14a5.428 5.428 0 01-3.766-1.558 5.209 5.209 0 01-1.556-3.704v-94.633a41.748 41.748 0 00-3.306-16.274 42.44 42.44 0 00-9.415-13.792 43.452 43.452 0 00-14.089-9.209 44.153 44.153 0 00-16.613-3.221h-31.777v137.129a5.124 5.124 0 01-.391 2.01 5.194 5.194 0 01-1.15 1.708 5.337 5.337 0 01-1.733 1.143 5.415 5.415 0 01-2.048.401h-35.14a5.426 5.426 0 01-3.798-1.541 5.208 5.208 0 01-1.574-3.721v-137.03h-75.301v137.03a5.123 5.123 0 01-.39 2.01 5.21 5.21 0 01-1.15 1.708 5.337 5.337 0 01-1.733 1.143 5.419 5.419 0 01-2.048.401h-35.14a5.419 5.419 0 01-2.048-.401 5.337 5.337 0 01-1.733-1.143 5.194 5.194 0 01-1.15-1.708 5.142 5.142 0 01-.391-2.01l.251-165.41zm466.114 63.941H879.24c-29.267 0-45.733 22.821-45.733 47.463v12.542c.04 12.455 5.111 24.387 14.104 33.189 8.993 8.802 21.177 13.757 33.888 13.783h145.581a5.438 5.438 0 003.77-1.558 5.232 5.232 0 001.55-3.704v-93.01c0-47.857-31.07-77.86-79.566-77.86H845.957c-1.411 0-2.765.55-3.762 1.527a5.161 5.161 0 00-1.559 3.687V98.13c0 1.383.561 2.709 1.559 3.687a5.378 5.378 0 003.762 1.527h97.741c27.912 0 41.164 13.427 42.972 35.315l-.251.246zm.702 74.958h-90.06a21.343 21.343 0 01-8.023-1.724 21 21 0 01-6.734-4.61 20.49 20.49 0 01-4.411-6.789c-1-2.526-1.48-5.22-1.414-7.928v-5.362a19.314 19.314 0 011.145-8.07 19.618 19.618 0 014.385-6.924 20.104 20.104 0 016.872-4.589 20.459 20.459 0 018.18-1.468h89.81l.25 47.464zM373.017 69.75h30.12c51.606 0 94.126 29.118 94.126 87.747 0 54.989-36.998 88.139-94.126 88.139h-30.12c-56.727 0-94.327-33.15-94.327-88.139 0-58.63 42.971-87.747 94.176-87.747h.151zm9.889 33.594h10.743c36.596 0 58.534 17.903 58.534 54.103 0 33.987-18.725 54.547-58.534 54.547h-10.592c-40.161 0-58.534-20.56-58.534-54.547 0-36.249 21.486-54.103 58.534-54.103h-.151zM2.586 18.154a5.21 5.21 0 011.573-3.672 5.427 5.427 0 013.748-1.54h144.628c57.129 0 103.765 31.773 103.765 103.829v25.035c0 67.581-46.636 103.83-103.765 103.83H7.907a5.429 5.429 0 01-3.766-1.558 5.21 5.21 0 01-1.555-3.704V18.154zm47.54 30.151h98.042c39.759 0 58.986 22.38 58.986 72.499v17.412c0 46.529-19.227 72.056-58.986 72.056H50.126V48.305zM1314.18 12.941c6.88.064 13.46 2.767 18.33 7.53 4.87 4.763 7.64 11.206 7.72 17.948a25.208 25.208 0 01-4.36 14.196c-2.86 4.204-6.93 7.483-11.69 9.423-4.76 1.94-10 2.452-15.05 1.473a26.24 26.24 0 01-13.36-6.975 25.361 25.361 0 01-7.14-13.07 25.045 25.045 0 011.47-14.755c1.97-4.667 5.31-8.657 9.6-11.464a26.412 26.412 0 0114.48-4.306zm22.84 74.122v153.311a5.14 5.14 0 01-1.54 3.718 5.367 5.367 0 01-3.78 1.544h-35.14c-1.43 0-2.79-.554-3.8-1.541a5.196 5.196 0 01-1.57-3.721V87.064c0-.7.14-1.393.42-2.038a5.16 5.16 0 011.19-1.72 5.394 5.394 0 013.86-1.505h35.14c1.41 0 2.76.549 3.76 1.526 1 .978 1.56 2.304 1.56 3.687l-.1.05zm-275.2-12.1c0-1.382.56-2.708 1.56-3.686 1-.978 2.35-1.527 3.76-1.527h115.76c21.09.052 41.3 8.263 56.23 22.847 14.93 14.583 23.37 34.357 23.49 55.013v92.764c0 1.387-.56 2.718-1.55 3.704a5.438 5.438 0 01-3.77 1.558h-35.14a5.414 5.414 0 01-3.76-1.558 5.2 5.2 0 01-1.56-3.704v-94.633c-.04-11.258-4.62-22.045-12.75-30.006-8.12-7.961-19.13-12.451-30.62-12.49h-65.92v137.129c.01.688-.12 1.372-.39 2.01a5.06 5.06 0 01-1.15 1.708c-.49.489-1.08.878-1.73 1.143-.65.265-1.35.401-2.05.401h-35.14a5.398 5.398 0 01-3.75-1.561 5.159 5.159 0 01-1.13-1.702 4.918 4.918 0 01-.39-1.999V74.964z" fill="#212223"/></g></g><defs><clipPath id="clip0"><path fill="#fff" d="M0 0h260v260H0z"/></clipPath></defs></svg>
